~myBuffer1=Buffer.read(s, "C:/Users/selfd/OneDrive/Desktop/ben/6mon.wav");
~myBuffer2=Buffer.read(s, "C:/Users/selfd/OneDrive/Desktop/ben/6mon.wav");
~myBuffer3=Buffer.read(s, "C:/Users/selfd/OneDrive/Desktop/ben/0.wav");
~myBuffer4=Buffer.read(s, "C:/Users/selfd/OneDrive/Desktop/ben/6mon.wav");