(
~routine = Routine({
~file1="C:/Users/selfd/OneDrive/Desktop/ben/files.scd".load;
10.wait;
~file2="C:/Users/selfd/OneDrive/Desktop/ben/synths.scd".load;
10.wait;
~file3="C:/Users/selfd/OneDrive/Desktop/ben/instancing.scd".load;
10.wait;
}).play
)